svgs/sharp-thin/turn-down-left.svg

<svg xmlns="http://www.w3.org/2000/svg" viewBox="0 0 512 512"><!--! Font Awesome Pro 6.6.0 by @fontawesome - https://fontawesome.com License - https://fontawesome.com/license (Commercial License) Copyright 2024 Fonticons, Inc. --><path d="M176 256l16 0 224 0 16 0 0-16 0-192 64 0 0 272-304 0-16 0 0 16 0 96-9.4 0L22.6 288l144-144 9.4 0 0 96 0 16zM160 128L11.3 276.7 0 288l11.3 11.3L160 448l16 0 16 0 0-16 0-80 0-16 16 0 288 0 16 0 0-16 0-272 0-16-16 0-64 0-16 0 0 16 0 176 0 16-16 0-192 0-16 0 0-16 0-80 0-16-16 0-16 0z"/></svg>

<svg xmlns="http://www.w3.org/2000/svg" viewBox="0 0 512 512"><!--! Font Awesome Pro 6.5.2 by @fontawesome - https://fontawesome.com License - https://fontawesome.com/license (Commercial License) Copyright 2024 Fonticons, Inc. --><path d="M176 256h16l224 0h16V240 48l64 0V320l-304 0H176v16 96h-9.4L22.6 288l144-144H176l0 96v16zM160 128L11.3 276.7 0 288l11.3 11.3L160 448h16 16V432 352 336h16l288 0h16V320 48 32l-16 0-64 0-16 0V48 224v16H400l-192 0H192V224l0-80V128H176 160z"/></svg>
